X:352
%%etbk:tnset id:163,pos:3,rep:3x,ant:
%%etbk:pldat 2016-08-03T16:36,2014-09-24T16:56,2014-05-11T12:05,2014-05-09T19:20,2014-03-20T18:03,2014-03-13T18:43,2014-03-02T16:54,2014-03-01T16:11,2014-02-15T15:42,2014-02-12T18:31,2014-02-11T17:55,2014-02-09T10:55,2014-02-06T17:58,2013-11-27T18:06,2013-09-29T16:23,2013-05-22T17:08,2013-05-18T14:06,2013-05-14T18:31,2013-05-01T17:02,2013-04-30T15:32
T:Christy Barry's No. 2
T:The Butlers Of Glen Avenue
Z: Piano Box Version by Martin Fleischmann
H: Created 2013-02-19 /  Modified 2013-04-29
C:Anthony Sullivan
M:6/8
L:1/8
R:jig
K:Gmaj
|: "G"!1!D!2!E!3!G !2!E!1!D!2!B, | !1!D!2!E!3!G !5!B2B | !1!D!2!E!3!G !5!B!3!B!5!e | "D"!4!d!3!B!5!e !4!d!3!B!2!A |
"G"!1!D!2!E!3!G !2!E!1!D!2!B, | !1!D!2!E!3!G !5!B2!1!B | !2!d2d !5!gfe |1 "D"!2!d!1!B!2!A "G"!1!G2!2!E:|2 "D"!2!d!1!B!2!A "G"!1!G!2!B!1!d||
|: "G"!3!gab !4!a!3!g!2!e | !1!d!2!e!3!g !1!B2B | !3!gab gab | !1!dBd !2!e2!1!e |
"G"!3!g2b !4!a!3!g!2!e | !1!d!2!e!3!g !1!BBB | !2!d2d !5!gfe |1 "D"!2!d!1!B!2!A "G"!1!G!2!B!1!d:|2 "D"!2!d!1!B!2!A "G"!1!G2!2!E||


